assets/img/main/deal/6.svg

<svg width="354" height="354" viewBox="0 0 354 354" fill="none" xmlns="http://www.w3.org/2000/svg">
<path d="M301.824 239.089C301.857 241.031 301.665 242.977 302.501 244.248C306.511 250.346 310.96 256.155 314.951 262.264C321.566 272.39 320.551 282.208 312.159 290.726C304.796 298.201 297.328 305.573 289.902 312.987C282.992 319.886 271.695 321.343 262.994 315.435C256.685 311.152 250.579 306.567 244.198 302.398C242.895 301.547 240.545 301.347 239.063 301.893C233.626 303.894 228.489 306.795 222.968 308.457C219.098 309.622 217.805 311.768 217.298 315.316C216.478 321.04 215.166 326.701 214.523 332.44C213.166 344.547 202.886 353.986 190.805 353.149C181.185 352.484 171.464 352.646 161.82 353.107C149.382 353.702 140.569 344.45 138.581 332.916C137.292 325.433 136.184 317.92 135.038 310.686C128.108 307.712 121.468 304.676 114.659 302.087C113.165 301.519 110.719 302.01 109.308 302.929C103.617 306.634 98.1475 310.68 92.6188 314.632C82.3826 321.949 71.5039 321.109 62.5895 312.244C55.5026 305.196 48.3983 298.164 41.3987 291.03C33.1787 282.651 32.2866 272.249 38.9352 262.509C42.9531 256.622 47.2734 250.938 51.1443 244.959C52.0184 243.609 52.2119 241.187 51.6487 239.651C49.539 233.895 46.8539 228.353 44.656 222.627C43.598 219.871 42.2481 218.561 39.0643 218.161C31.5316 217.216 24.0028 215.939 16.6193 214.179C6.34039 211.73 0.296421 203.6 0.293552 193.168C0.290805 183.168 1.07974 173.09 0.0932347 163.189C-1.13197 150.892 9.93181 140.472 20.7098 139.221C26.9356 138.498 33.1462 137.455 39.2624 136.099C40.946 135.726 42.8666 133.998 43.638 132.392C45.8575 127.771 47.0236 122.591 49.5863 118.204C52.2218 113.693 51.4854 110.404 48.5299 106.599C44.57 101.502 40.8764 96.1816 37.3191 90.7917C31.2168 81.5455 32.37 70.9567 40.1118 63.2234C47.4185 55.9247 54.7486 48.6494 62.0493 41.3448C70.2341 33.1556 81.4575 32.1596 90.9839 38.8717C96.5427 42.7883 102.179 46.6179 107.498 50.8414C109.879 52.7321 111.679 52.5594 114.175 51.4006C119.27 49.0356 124.407 46.6663 129.733 44.9315C133.249 43.7862 134.71 41.6378 135.234 38.381C136.231 32.1843 137.311 25.9972 138.128 19.7762C139.616 8.45293 150.22 -0.714333 160.639 0.0438836C170.42 0.755668 180.321 0.655975 190.121 0.0854295C203.797 -0.710847 212.091 9.1065 213.826 20.1395C214.854 26.6741 215.973 33.2011 217.343 39.6698C217.636 41.0548 218.929 42.7372 220.202 43.3191C226.225 46.0723 232.451 48.3772 238.497 51.0834C241.051 52.2266 242.976 52.1297 245.259 50.3866C250.792 46.1622 256.524 42.1978 262.187 38.144C270.984 31.8457 282.205 32.599 289.968 40.2005C297.94 48.0076 305.809 55.9225 313.632 63.8794C319.923 70.2776 321.242 81.1523 316.373 88.7308C312.16 95.2876 307.309 101.434 303.099 107.992C302.083 109.575 301.736 112.339 302.368 114.097C304.885 121.101 307.91 127.922 310.738 134.79C318.797 136.252 326.913 137.755 335.041 139.189C345.656 141.063 353.837 150.842 353.166 161.936C352.563 171.899 352.683 181.943 353.136 191.922C353.613 202.427 345.661 212.3 333.778 214.281C327.425 215.34 321.061 216.334 314.689 217.274C311.676 217.718 309.769 218.977 308.7 222.134C306.787 227.784 304.313 233.244 301.824 239.089ZM269.914 295.193C271.684 296.325 273.453 297.458 275.383 298.693C281.917 292.097 287.923 285.612 294.412 279.654C297.983 276.374 298.754 274.008 295.437 269.942C290.412 263.781 286.118 257.028 281.43 250.588C278.005 245.883 277.398 241.375 280.095 235.795C284.479 226.721 288.315 217.343 291.738 207.86C293.872 201.951 297.469 198.986 303.538 198.112C312.046 196.887 320.479 195.144 328.985 193.899C332.115 193.441 333.228 192.136 333.177 189.036C333.039 180.706 333.085 172.371 333.153 164.039C333.177 161.095 332.308 159.582 328.998 159.146C320.966 158.089 313.031 156.272 304.993 155.282C297.229 154.326 293.222 150.276 290.893 142.839C288.235 134.351 284.578 126.105 280.618 118.12C277.779 112.396 277.601 107.747 281.593 102.506C287.595 94.6253 293.059 86.3344 299.035 77.8153C291.473 70.3855 284.31 63.1985 276.9 56.2751C276.085 55.5135 273.45 55.663 272.351 56.4089C264.945 61.4334 257.651 66.6319 250.475 71.9811C246.051 75.2786 241.969 75.8041 236.696 73.3717C226.799 68.8072 216.533 65.0383 206.385 61.0299C201.66 59.1637 198.807 55.9783 197.98 50.8671C196.527 41.8915 194.776 32.9626 193.427 23.9726C193.03 21.3244 192.186 20.1556 189.434 20.1843C180.602 20.2763 171.762 20.0476 162.943 20.3895C161.455 20.4472 159.079 22.5204 158.775 24.0032C157.051 32.4067 155.589 40.8834 154.518 49.3956C153.661 56.2113 149.969 59.8577 143.722 62.1671C134.744 65.4863 125.854 69.1347 117.219 73.2568C111.819 75.8345 107.218 75.9023 102.391 72.3798C95.2963 67.2019 88.0082 62.2858 80.9696 57.0339C78.473 55.1711 76.9495 55.1265 74.7167 57.5017C69.0141 63.5681 63.1179 69.4669 57.0563 75.1748C54.4435 77.6352 54.2809 79.498 56.4209 82.3476C61.5955 89.2378 66.4161 96.3927 71.5119 103.344C74.875 107.931 75.3379 112.288 72.8304 117.691C68.5915 126.824 64.9468 136.259 61.5335 145.74C59.6002 151.11 56.6545 154.408 50.8223 155.324C40.9366 156.875 31.1112 158.809 21.3502 160.567C21.3502 171.992 21.3502 182.925 21.3502 194.113C30.0665 195.579 38.4964 197.189 46.9863 198.366C53.954 199.331 59.5115 201.365 62.1357 208.943C65.3798 218.312 69.2446 227.5 73.4157 236.5C75.8361 241.722 76.1237 246.028 72.5345 250.822C66.5003 258.882 60.8819 267.253 55.3086 275.18C63.3445 283.293 71.0577 291.08 79.083 299.182C87.4808 293.273 96.0777 287.387 104.484 281.239C108.535 278.277 112.345 277.884 116.978 279.933C126.808 284.278 136.787 288.293 146.774 292.272C150.997 293.954 153.724 296.619 154.462 301.199C155.829 309.678 157.349 318.133 158.605 326.628C159.241 330.924 160.551 333.482 165.774 333.11C172.904 332.603 180.123 332.619 187.256 333.107C192.348 333.456 193.875 331.252 194.493 326.763C195.64 318.418 197.207 310.131 198.553 301.813C199.346 296.914 202.077 293.984 206.76 292.181C216.793 288.319 226.816 284.364 236.55 279.818C241.376 277.564 245.288 277.638 249.468 280.679C256.032 285.456 262.676 290.122 269.914 295.193Z" fill="#1271C9"/>
<path d="M175.385 253.13C140.251 251.977 111.828 228.641 103.21 197.624C92.8241 160.247 110.276 122.987 145.443 106.581C172.939 93.753 207.17 99.9643 229.029 121.106C246.377 137.884 254.678 158.201 253.005 181.989C250.45 218.313 222.341 247.473 187.215 252.242C183.458 252.752 179.644 252.844 175.385 253.13ZM159.707 229.459C187.756 239.002 220.384 223.642 229.967 193.118C239.097 164.034 222.804 132.869 193.754 123.367C165.713 114.194 133.736 129.691 124.414 156.97C113.879 187.798 128.64 218.743 159.707 229.459Z" fill="#1371C9"/>
</svg>

<svg width="354" height="354" fill="none" xmlns="http://www.w3.org/2000/svg"><path d="M301.824 239.089c.033 1.942-.159 3.888.677 5.159 4.01 6.098 8.459 11.907 12.45 18.016 6.615 10.126 5.6 19.944-2.792 28.462-7.363 7.475-14.831 14.847-22.257 22.261-6.91 6.899-18.207 8.356-26.908 2.448-6.309-4.283-12.415-8.868-18.796-13.037-1.303-.851-3.653-1.051-5.135-.505-5.437 2.001-10.574 4.902-16.095 6.564-3.87 1.165-5.163 3.311-5.67 6.859-.82 5.724-2.132 11.385-2.775 17.124-1.357 12.107-11.637 21.546-23.718 20.709-9.62-.665-19.341-.503-28.985-.042-12.438.595-21.251-8.657-23.239-20.191-1.289-7.483-2.397-14.996-3.543-22.23-6.93-2.974-13.57-6.01-20.379-8.599-1.494-.568-3.94-.077-5.351.842-5.691 3.705-11.16 7.751-16.69 11.703-10.235 7.317-21.114 6.477-30.028-2.388-7.087-7.048-14.192-14.08-21.191-21.214-8.22-8.379-9.112-18.781-2.464-28.521 4.018-5.887 8.338-11.571 12.21-17.55.873-1.35 1.067-3.772.504-5.308-2.11-5.756-4.795-11.298-6.993-17.024-1.058-2.756-2.408-4.066-5.592-4.466-7.532-.945-15.061-2.222-22.445-3.982C6.34 211.73.296 203.6.294 193.168c-.003-10 .786-20.078-.2-29.979-1.226-12.297 9.838-22.717 20.616-23.968a183.775 183.775 0 0018.552-3.122c1.684-.373 3.605-2.101 4.376-3.707 2.22-4.621 3.386-9.801 5.948-14.188 2.636-4.511 1.9-7.8-1.056-11.605-3.96-5.097-7.654-10.417-11.21-15.807-6.103-9.246-4.95-19.835 2.792-27.569 7.306-7.298 14.637-14.574 21.937-21.878 8.185-8.19 19.408-9.185 28.935-2.473 5.559 3.916 11.195 7.746 16.514 11.97 2.381 1.89 4.181 1.717 6.677.559 5.095-2.365 10.232-4.735 15.558-6.47 3.516-1.145 4.977-3.293 5.501-6.55.997-6.197 2.077-12.384 2.894-18.605C139.616 8.453 150.22-.714 160.639.044c9.781.712 19.682.612 29.482.041 13.676-.796 21.97 9.021 23.705 20.055 1.028 6.534 2.147 13.061 3.517 19.53.293 1.385 1.586 3.067 2.859 3.65 6.023 2.752 12.249 5.057 18.295 7.763 2.554 1.144 4.479 1.047 6.762-.696 5.533-4.225 11.265-8.19 16.928-12.243 8.797-6.298 20.018-5.545 27.781 2.056 7.972 7.808 15.841 15.722 23.664 23.68 6.291 6.398 7.61 17.272 2.741 24.85-4.213 6.558-9.064 12.704-13.274 19.262-1.016 1.583-1.363 4.347-.731 6.105 2.517 7.004 5.542 13.825 8.37 20.693 8.059 1.462 16.175 2.965 24.303 4.399 10.615 1.874 18.796 11.653 18.125 22.747-.603 9.963-.483 20.007-.03 29.986.477 10.505-7.475 20.378-19.358 22.359a1032.739 1032.739 0 01-19.089 2.993c-3.013.444-4.92 1.703-5.989 4.86-1.913 5.65-4.387 11.11-6.876 16.955zm-31.91 56.104l5.469 3.5c6.534-6.596 12.54-13.081 19.029-19.039 3.571-3.28 4.342-5.646 1.025-9.712-5.025-6.161-9.319-12.914-14.007-19.354-3.425-4.705-4.032-9.213-1.335-14.793 4.384-9.074 8.22-18.452 11.643-27.935 2.134-5.909 5.731-8.874 11.8-9.748 8.508-1.225 16.941-2.968 25.447-4.213 3.13-.458 4.243-1.763 4.192-4.863-.138-8.33-.092-16.665-.024-24.997.024-2.944-.845-4.457-4.155-4.893-8.032-1.057-15.967-2.874-24.005-3.864-7.764-.956-11.771-5.006-14.1-12.443-2.658-8.488-6.315-16.734-10.275-24.719-2.839-5.724-3.017-10.373.975-15.614 6.002-7.88 11.466-16.172 17.442-24.69-7.562-7.43-14.725-14.617-22.135-21.54-.815-.763-3.45-.613-4.549.133a604.114 604.114 0 00-21.876 15.572c-4.424 3.298-8.506 3.823-13.779 1.39-9.897-4.564-20.163-8.333-30.311-12.341-4.725-1.866-7.578-5.052-8.405-10.163-1.453-8.975-3.204-17.904-4.553-26.894-.397-2.649-1.241-3.817-3.993-3.789-8.832.092-17.672-.136-26.491.206-1.488.057-3.864 2.13-4.168 3.613-1.724 8.404-3.186 16.88-4.257 25.393-.857 6.815-4.549 10.462-10.796 12.771-8.978 3.32-17.868 6.968-26.503 11.09-5.4 2.578-10.001 2.645-14.828-.877-7.095-5.178-14.383-10.094-21.421-15.346-2.497-1.863-4.02-1.907-6.253.468a410.22 410.22 0 01-17.66 17.673c-2.614 2.46-2.776 4.323-.636 7.173 5.175 6.89 9.995 14.045 15.09 20.996 3.364 4.587 3.827 8.944 1.32 14.347-4.24 9.133-7.884 18.568-11.298 28.049-1.933 5.37-4.879 8.668-10.71 9.584-9.886 1.551-19.712 3.485-29.473 5.243v33.546c8.716 1.466 17.146 3.076 25.636 4.253 6.968.965 12.526 2.999 15.15 10.577 3.244 9.369 7.109 18.557 11.28 27.557 2.42 5.222 2.708 9.528-.882 14.322-6.034 8.06-11.652 16.431-17.225 24.358l23.774 24.002c8.398-5.909 16.995-11.795 25.401-17.943 4.051-2.962 7.861-3.355 12.494-1.306 9.83 4.345 19.809 8.36 29.796 12.339 4.223 1.682 6.95 4.347 7.688 8.927 1.367 8.479 2.887 16.934 4.143 25.429.636 4.296 1.946 6.854 7.169 6.482 7.13-.507 14.349-.491 21.482-.003 5.092.349 6.619-1.855 7.237-6.344 1.147-8.345 2.714-16.632 4.06-24.95.793-4.899 3.524-7.829 8.207-9.632 10.033-3.862 20.056-7.817 29.79-12.363 4.826-2.254 8.738-2.18 12.918.861 6.564 4.777 13.208 9.443 20.446 14.514z" fill="#1271C9"/><path d="M175.385 253.13c-35.134-1.153-63.557-24.489-72.175-55.506-10.386-37.377 7.066-74.637 42.233-91.043 27.496-12.828 61.727-6.617 83.586 14.525 17.348 16.778 25.649 37.095 23.976 60.883-2.555 36.324-30.664 65.484-65.79 70.253-3.757.51-7.571.602-11.83.888zm-15.678-23.671c28.049 9.543 60.677-5.817 70.26-36.341 9.13-29.084-7.163-60.249-36.213-69.751-28.041-9.173-60.018 6.324-69.34 33.603-10.535 30.828 4.226 61.773 35.293 72.489z" fill="#1371C9"/></svg>
